spyder/images/light/filecloseall.svg

<svg width="24" height="24" viewBox="0 0 24 24" fill="none" xmlns="http://www.w3.org/2000/svg">
<path fill-rule="evenodd" clip-rule="evenodd" d="M16.59 4L18 5.41L12.41 11L18 16.59L16.59 18L13.5 14.91L13.5 14.91L12.09 13.5L12.09 13.5L11 12.41L5.41 18L4 16.59L9.59 11L4 5.41L5.41 4L11 9.59L16.59 4ZM7.91 20.4999L6.50003 19.09L10.9357 14.6543L12.3456 16.0643L7.91 20.4999ZM19.09 20.4999L17.68 19.09L19.09 17.68L20.5 19.0899L19.09 20.4999ZM14.6544 10.9356L16.0643 12.3456L20.5 7.90995L19.09 6.49997L14.6544 10.9356Z" fill="#37414F"/>
</svg>

<svg xmlns="http://www.w3.org/2000/svg" width="24" height="24" fill="none"><path fill="#37414F" fill-rule="evenodd" d="M16.59 4 18 5.41 12.41 11 18 16.59 16.59 18l-3.09-3.09-1.41-1.41L11 12.41 5.41 18 4 16.59 9.59 11 4 5.41 5.41 4 11 9.59 16.59 4ZM7.91 20.5 6.5 19.09l4.436-4.436 1.41 1.41L7.91 20.5Zm11.18 0-1.41-1.41 1.41-1.41 1.41 1.41-1.41 1.41Zm-4.436-9.564 1.41 1.41L20.5 7.91 19.09 6.5l-4.436 4.436Z" clip-rule="evenodd"/></svg>
